X: 2155
T: Aughnahoo
R: jig
M: 6/8
K: Dmajor
|:ABA F2D|ABA FAD|GFG EG=C|GFG AFG|
ABA F2D|ABA FAd|efd edB|AFD D3:|
a3 afd|efg agf|gee bee|gfe efg|
aba afd|ede g=cc|dBA BAF|AFD D3
a3 afd|efg agf|gee bee|gfe efg|
aba fgf|efe fga|f2d edB|AFD D3|

